packages/core/src/svgs/tokens/branded/PDT.svg

<svg width="24" height="24" viewBox="0 0 24 24" fill="none" xmlns="http://www.w3.org/2000/svg">
<path d="M12.0001 5.62L7.93334 12H7.94001L7.00668 13.48H7L2 21.3334V2.66666L6.06001 9.04663L5.12 10.5201L3.60667 8.14V15.86L6.06001 12L6.99335 10.5201H7L12.0001 2.66666L16.0601 9.04663L15.1201 10.5201L12.0001 5.62ZM17 10.5201L22 2.66666V21.3334L17.9333 14.9534L18.88 13.4733L20.3934 15.86V8.14L18.5533 11.0267L17.94 12L12.0001 21.3334L7.94001 14.9534L8.88002 13.48L12.0001 18.38L16.0601 12L16.9934 10.5201H17Z" fill="#8CDC48"/>
</svg>

<svg xmlns="http://www.w3.org/2000/svg" width="24" height="24" fill="none" viewBox="0 0 24 24">
    <path fill="#8CDC48" d="M12 5.62 7.933 12h.007l-.933 1.48H7l-5 7.853V2.667l4.06 6.38-.94 1.473-1.513-2.38v7.72L6.06 12l.933-1.48H7l5-7.853 4.06 6.38-.94 1.473zm5 4.9 5-7.853v18.666l-4.067-6.38.947-1.48 1.513 2.387V8.14l-1.84 2.887-.613.973L12 21.333l-4.06-6.38.94-1.473 3.12 4.9L16.06 12l.933-1.48z"/>
</svg>
